X: 20857
T: Jointure, The
R: jig
M: 6/8
K: Gmajor
|:gag gdg|aba gdg|aba gdg|gag g2a|
bag ged|gag ged|ede g2B|1 AGF G2d:|2 AGF GBE||
|:D2G GDG|Bdd d2d|ege dBd|egg g2a|
bag ged|gag ged|ede g2B|AGF GBE:|

